X:65
T:Blithest Lass that e'er was seen, The
M:6/8
L:1/8
B:Thompson's Compleat Collection of 200 Favourite Country Dances, vol. 1 (London, 1757)
Z:Transcribed and edited by Fynnian Titford-Mock, 2007
Z:abc's:AK/Fiddler's Companion
K:G
d3 gfg|agf gfg|def gdB|d3 e3|d3 gfg|agf gdB|e/f/ge def|gdB G3:|
|:gdg bgb|ada gaf|gdg bdb|ada gaf|gdg bdb|ada gaf|gfe dcB|"tr"A3 G3:|

